build/img/svg/telegram.svg

<svg width="15" height="13" viewBox="0 0 15 13" fill="none" xmlns="http://www.w3.org/2000/svg">
<path d="M6.04945 8.72806L11.4957 12.5768C12.1172 12.9048 12.5657 12.735 12.7205 12.0249L14.9374 2.03246C15.1644 1.16206 14.5906 0.76729 13.996 1.02547L0.978404 5.82666C0.0898302 6.16756 0.0950105 6.64173 0.816436 6.85301L4.15705 7.85032L11.8909 3.18335C12.256 2.97158 12.5911 3.08543 12.3161 3.31891" fill="#B6BAC7"/>
</svg>

<svg width="15" height="13" fill="none" xmlns="http://www.w3.org/2000/svg"><path d="M6.05 8.728l5.446 3.849c.621.328 1.07.158 1.224-.552l2.217-9.993c.227-.87-.346-1.265-.941-1.007L.978 5.827c-.888.34-.883.815-.162 1.026l3.341.997 7.734-4.667c.365-.211.7-.098.425.136" fill="#B6BAC7"/></svg>
